svgs/simplelogin.svg

<svg xmlns="http://www.w3.org/2000/svg" viewBox="0 0 192 192"><path d="M71.316 36.253c-2.218 0-4.397.587-6.318 1.703a12.684 12.684 0 0 0-4.625 4.655 12.788 12.788 0 0 0-1.692 6.358v4.102l-1.672 1.723A85.498 85.498 0 0 1 18.98 77.766l-1.957.615v2.051a86.655 86.655 0 0 0 7.133 45.124c7.216 13.878 19.376 24.519 34.035 29.781l1.101.41 1.101-.41c14.676-5.25 26.853-15.892 34.075-29.781h68.396a12.68 12.68 0 0 0 8.911-3.749 12.838 12.838 0 0 0 3.725-8.968v-63.87a12.803 12.803 0 0 0-3.713-8.98 12.638 12.638 0 0 0-8.923-3.736Zm30.408 54.476c0-.862-.245-9.435-.286-10.297v-2.051l-1.997-.615a98.083 98.083 0 0 1-40.76-24.9m35.706 72.485a79.44 79.44 0 0 0 7.337-34.622m-19.076.902-26.902 27.566-16.06-15.013m124.931-55.215L117.09 78.34m0 0L69.564 48.969" fill="none" stroke="#000" stroke-width="12" stroke-linecap="round" stroke-linejoin="round"/></svg>

<svg
    xmlns="http://www.w3.org/2000/svg"
    viewBox="0 0 192 192"
    id="vector">
    <path
        id="path"
        d="M 71.316 36.253 C 69.098 36.253 66.919 36.84 64.998 37.956 C 63.078 39.072 61.482 40.678 60.373 42.611 C 59.265 44.544 58.681 46.737 58.681 48.969 L 58.681 53.071 L 57.009 54.794 C 46.559 65.68 33.441 73.605 18.98 77.766 L 17.023 78.381 L 17.023 80.432 C 15.322 95.844 17.787 111.436 24.156 125.556 C 31.372 139.434 43.532 150.075 58.191 155.337 L 59.292 155.747 L 60.393 155.337 C 75.069 150.087 87.246 139.445 94.468 125.556 L 162.864 125.556 C 166.208 125.534 169.411 124.187 171.775 121.807 C 174.14 119.428 175.479 116.204 175.5 112.839 L 175.5 48.969 C 175.489 45.601 174.154 42.371 171.787 39.989 C 169.421 37.608 166.211 36.263 162.864 36.253 Z M 101.724 90.729 C 101.724 89.867 101.479 81.294 101.438 80.432 L 101.438 78.381 L 99.441 77.766 C 84.029 72.963 70.028 64.41 58.681 52.866 M 94.387 125.351 C 99.403 114.518 101.912 102.679 101.724 90.729 M 82.648 91.631 L 55.746 119.197 L 39.686 104.184 M 164.617 48.969 L 117.09 78.34 M 117.09 78.34 L 69.564 48.969"
        fill="none"
        stroke="#000000"
        stroke-width="12"
        stroke-linecap="round"
        stroke-linejoin="round"/>
</svg>
